app/dist/common/images/veritex.svg

<svg height="18" viewBox="0 0 18 18" width="18" xmlns="http://www.w3.org/2000/svg"><path d="m0 0h18v18h-18z" fill="#dd6c1c"/><path d="m7.5 7h-2.5l4 8 4-8h-2.5l-1.5 3.5zm1.5-4 .47 1.45h1.53l-1.24 1.02.48 1.53-1.24-.94-1.24.94.48-1.53-1.24-1.02h1.53z" fill="#fff"/></svg>

<!-- by TradingView --><svg width="18" height="18" viewBox="0 0 18 18" xmlns="http://www.w3.org/2000/svg"><path fill="#DD6C1C" d="M0 0h18v18H0z"/><path d="M7.5 7H5l4 8 4-8h-2.5L9 10.5 7.5 7ZM9 3l.47 1.45H11L9.76 5.47 10.24 7 9 6.06 7.76 7l.48-1.53L7 4.45h1.53L9 3Z" fill="#fff"/></svg>
